img/test-and-share.svg

<svg width="81" height="80" viewBox="0 0 81 80" fill="none" xmlns="http://www.w3.org/2000/svg">
<path d="M21.2963 13.3044C21.2963 12.201 20.3978 11.2867 19.2786 11.2867H15.8737L15.9525 10.7507C16.4411 7.18818 18.585 6.98325 19.3889 6.9202C19.9564 6.87291 20.3978 6.4 20.3978 5.81675V1.10345C20.3978 0.803941 20.2717 0.504433 20.051 0.299507C19.8461 0.110345 19.5781 0 19.2943 0C19.2786 0 19.2471 0 19.2313 0C14.4392 0.26798 8.74854 2.69557 8.74854 12.7212V20.9182C8.74854 22.0217 9.64706 22.936 10.7663 22.936H19.2943C19.8303 22.936 20.3347 22.731 20.7131 22.3527C21.0914 21.9744 21.2963 21.47 21.2963 20.934V13.3044ZM19.0894 20.7291H10.9554V12.7212C10.9554 6.62069 13.1308 3.24729 17.6234 2.41182L18.1909 2.30148V4.8867L17.8599 4.98128C15.9367 5.56453 13.651 7.33005 13.651 12.3901C13.651 13.0049 14.1397 13.4936 14.7544 13.4936H19.1052V20.7291H19.0894Z" fill="black"/>
<path d="M37.407 13.3044C37.407 12.201 36.5085 11.2867 35.3893 11.2867H32.0001L32.0789 10.7507C32.5676 7.18818 34.7115 6.98325 35.5154 6.9202C36.0829 6.87291 36.5243 6.4 36.5243 5.81675V1.10345C36.5243 0.803941 36.3982 0.504433 36.1775 0.299507C35.9725 0.110345 35.7046 0 35.4208 0C35.4051 0 35.3735 0 35.3578 0C30.5814 0.26798 24.875 2.69557 24.875 12.7212V20.9182C24.875 22.0217 25.7735 22.936 26.8927 22.936H35.4208C35.9568 22.936 36.4612 22.731 36.8395 22.3527C37.2179 21.9744 37.4228 21.47 37.4228 20.934V13.3044H37.407ZM35.2001 20.7291H27.0661V12.7212C27.0661 6.62069 29.2415 3.24729 33.7341 2.41182L34.3016 2.30148V4.8867L33.9706 4.98128C32.0474 5.56453 29.7617 7.33005 29.7617 12.3901C29.7617 13.0049 30.2504 13.4936 30.8651 13.4936H35.2159V20.7291H35.2001Z" fill="black"/>
<path d="M43.586 12.0433C43.2392 12.0433 42.8924 12.1852 42.6402 12.4374C42.388 12.6896 42.2461 13.0364 42.2461 13.3832C42.2461 13.73 42.388 14.0768 42.6402 14.329C42.8924 14.5813 43.2392 14.7231 43.586 14.7231C43.9328 14.7231 44.2796 14.5813 44.5318 14.329C44.784 14.0768 44.9259 13.73 44.9259 13.3832C44.9259 13.0364 44.784 12.6896 44.5318 12.4374C44.2796 12.1852 43.9328 12.0433 43.586 12.0433Z" fill="black"/>
<path d="M5.31232 25.8207C5.10739 25.7103 4.8867 25.6473 4.66601 25.6473C4.5399 25.6473 4.41379 25.663 4.30345 25.6946C3.95665 25.7891 3.67291 26.0256 3.49951 26.3251C1.21379 30.4394 0 35.0896 0 39.8187C0 55.1409 12.469 67.5941 27.7754 67.5941H44.9419L56.9537 79.6059C57.2059 79.8581 57.5369 80 57.8995 80C58.0729 80 58.2463 79.9684 58.4197 79.9054C58.9241 79.7005 59.2394 79.2118 59.2394 78.6601V66.7586L59.4128 66.7113C65.0562 65.2453 70.2108 61.9507 73.9153 57.4423C77.9823 52.4926 80.2207 46.2345 80.2207 39.8187C80.2207 24.4965 67.7517 12.0433 52.4453 12.0433H50.4591C49.7182 12.0433 49.1192 12.6423 49.1192 13.3832C49.1192 14.1241 49.7182 14.7231 50.4591 14.7231H52.4453C66.2857 14.7231 77.5409 25.9783 77.5409 39.8187C77.5409 51.6256 69.1547 61.9665 57.6158 64.3783C57.001 64.5044 56.5438 65.0561 56.5438 65.6867V75.4128L46.4236 65.2926C46.1714 65.0404 45.8246 64.8985 45.4778 64.8985H27.7754C13.935 64.9143 2.6798 53.6591 2.6798 39.8187C2.6798 35.5468 3.76749 31.3379 5.83251 27.6335C6.19507 26.9872 5.95862 26.1675 5.31232 25.8207Z" fill="black"/>
<path d="M59.5233 27.7438H20.7134C19.9725 27.7438 19.3735 28.3429 19.3735 29.0837C19.3735 29.8246 19.9725 30.4236 20.7134 30.4236H59.5075C60.2484 30.4236 60.8474 29.8246 60.8474 29.0837C60.8474 28.3429 60.2642 27.7438 59.5233 27.7438Z" fill="black"/>
<path d="M59.5233 36.1458H20.7134C19.9725 36.1458 19.3735 36.7448 19.3735 37.4857C19.3735 38.2266 19.9725 38.8256 20.7134 38.8256H59.5075C60.2484 38.8256 60.8474 38.2266 60.8474 37.4857C60.8474 36.7448 60.2642 36.1458 59.5233 36.1458Z" fill="black"/>
<path d="M59.5233 44.5636H20.7134C19.9725 44.5636 19.3735 45.1626 19.3735 45.9035C19.3735 46.6444 19.9725 47.2434 20.7134 47.2434H59.5075C60.2484 47.2434 60.8474 46.6444 60.8474 45.9035C60.8474 45.1626 60.2642 44.5636 59.5233 44.5636Z" fill="black"/>
<path d="M59.5231 52.9655H38.8414C38.1005 52.9655 37.5015 53.5645 37.5015 54.3054C37.5015 55.0463 38.1005 55.6453 38.8414 55.6453H59.5231C60.264 55.6453 60.863 55.0463 60.863 54.3054C60.863 53.5645 60.2483 52.9655 59.5231 52.9655Z" fill="black"/>
<path d="M29.9666 52.9655H29.9351C29.1942 52.9655 28.5952 53.5645 28.5952 54.3054C28.5952 55.0463 29.1942 55.6453 29.9351 55.6453H29.9666C30.7075 55.6453 31.3065 55.0463 31.3065 54.3054C31.3065 53.5645 30.7075 52.9655 29.9666 52.9655Z" fill="black"/>
</svg>

<svg width="81" height="80" fill="none" xmlns="http://www.w3.org/2000/svg"><path d="M21.296 13.304a2.022 2.022 0 00-2.017-2.017h-3.405l.079-.536c.488-3.563 2.632-3.768 3.436-3.83a1.101 1.101 0 001.009-1.104V1.103c0-.3-.126-.599-.347-.803-.205-.19-.473-.3-.757-.3h-.063C14.44.268 8.75 2.696 8.75 12.721v8.197c0 1.104.898 2.018 2.017 2.018h8.528a1.99 1.99 0 002.002-2.002v-7.63zM19.09 20.73h-8.134v-8.008c0-6.1 2.176-9.474 6.668-10.31l.568-.11v2.586l-.331.094c-1.923.584-4.209 2.349-4.209 7.41 0 .614.489 1.103 1.103 1.103h4.351v7.235h-.016zM37.407 13.304a2.022 2.022 0 00-2.018-2.017H32l.079-.536c.489-3.563 2.633-3.768 3.436-3.83a1.101 1.101 0 001.01-1.104V1.103c0-.3-.127-.599-.347-.803-.206-.19-.473-.3-.757-.3h-.063C30.58.268 24.875 2.696 24.875 12.721v8.197c0 1.104.898 2.018 2.018 2.018h8.528a1.99 1.99 0 002.002-2.002v-7.63h-.016zM35.2 20.73h-8.134v-8.008c0-6.1 2.175-9.474 6.668-10.31l.568-.11v2.586l-.331.094c-1.924.584-4.21 2.349-4.21 7.41 0 .614.49 1.103 1.104 1.103h4.35v7.235H35.2zM43.586 12.043a1.35 1.35 0 00-.946.394 1.35 1.35 0 00-.394.946c0 .347.142.694.394.946s.6.394.946.394c.347 0 .694-.142.946-.394a1.35 1.35 0 00.394-.946 1.35 1.35 0 00-.394-.946 1.35 1.35 0 00-.946-.394z" fill="#000"/><path d="M5.312 25.82a1.369 1.369 0 00-.646-.173 1.34 1.34 0 00-.363.048c-.346.094-.63.33-.803.63A27.811 27.811 0 000 39.82C0 55.14 12.469 67.594 27.775 67.594h17.167l12.012 12.012c.252.252.583.394.946.394.173 0 .346-.032.52-.095.504-.204.82-.693.82-1.245V66.76l.173-.048a28.047 28.047 0 0014.502-9.269 27.824 27.824 0 006.306-17.623c0-15.323-12.47-27.776-27.776-27.776H50.46a1.339 1.339 0 100 2.68h1.986c13.84 0 25.096 11.255 25.096 25.096 0 11.807-8.386 22.148-19.925 24.56a1.348 1.348 0 00-1.072 1.308v9.726l-10.12-10.12a1.35 1.35 0 00-.946-.395H27.775C13.935 64.915 2.68 53.66 2.68 39.819c0-4.271 1.087-8.48 3.153-12.184a1.324 1.324 0 00-.52-1.813z" fill="#000"/><path d="M59.523 27.744h-38.81a1.339 1.339 0 100 2.68h38.794c.741 0 1.34-.6 1.34-1.34 0-.741-.583-1.34-1.324-1.34zM59.523 36.146h-38.81a1.339 1.339 0 100 2.68h38.794c.741 0 1.34-.6 1.34-1.34 0-.741-.583-1.34-1.324-1.34zM59.523 44.564h-38.81a1.339 1.339 0 100 2.68h38.794c.741 0 1.34-.6 1.34-1.34 0-.741-.583-1.34-1.324-1.34zM59.523 52.965H38.841a1.339 1.339 0 100 2.68h20.682c.741 0 1.34-.599 1.34-1.34 0-.74-.615-1.34-1.34-1.34zM29.967 52.965h-.032a1.339 1.339 0 100 2.68h.032a1.339 1.339 0 100-2.68z" fill="#000"/></svg>
